src/images_karasa_jaga_svg/cmd/sc_insertcolumnbreak.svg

<svg enable-background="new 0 0 128 128" height="16" viewBox="0 0 16 16" width="16" xmlns="http://www.w3.org/2000/svg" xmlns:xlink="http://www.w3.org/1999/xlink"><radialGradient id="a" cx="102" cy="112.3047" gradientTransform="matrix(.9787234 0 0 .9818182 1.361705 1.163636)" gradientUnits="userSpaceOnUse" r="139.55859"><stop offset="0" stop-color="#ececec"/><stop offset=".2363" stop-color="#fafafa"/><stop offset=".2722" stop-color="#fff"/><stop offset=".5313" stop-color="#fafafa"/><stop offset=".8449" stop-color="#ebecec"/><stop offset="1" stop-color="#e1e2e3"/></radialGradient><radialGradient id="b" cx="102" cy="112.3047" gradientUnits="userSpaceOnUse" r="139.5585"><stop offset="0" stop-color="#ecf2f5"/><stop offset=".2435" stop-color="#fafcfd"/><stop offset=".2722" stop-color="#fff"/></radialGradient><filter id="c"><feGaussianBlur stdDeviation="1.0394514"/></filter><filter id="d"><feGaussianBlur stdDeviation=".50063244"/></filter><g transform="scale(.125)"><path d="m14 6 .021484 58-.021484 58h.042969 63.677734 36.279297v-36.072266-43.855468-36.072266h-36.279297-63.677734z" filter="url(#c)" opacity=".715069" stroke-width="1.038686"/><path d="m14 7 .021484 57.5-.021484 57.5h.042969 63.677734 36.279297v-36.072266-42.855468-36.072266h-36.279297-63.677734z" filter="url(#c)" opacity=".835616" stroke-width="1.038686"/><path d="m24.919999 10.931136v108.137934l58.676001-.0001c.53 0 1.039-.211 1.414-.586l31.484-31.765936c.375-.375.586-.884.586-1.414v-74.371898z" filter="url(#d)" opacity=".89589" transform="matrix(1.0416667 0 0 1.0357143 -9.958333 -3.321534)"/><path d="m16 8v112h61.171875 34.828125v-34.828125-42.34375-34.828125h-34.828125z" fill="url(#b)"/><path d="m24.679688 16c-.539277 0-.980469.44144-.980469.982422l.15039 47.017578-.15039 47.01758c0 .54098.441192.98242.980469.98242h.298828 51.914062 26.128902c.54025 0 .97852-.44144.97852-.98242v-26.230471-41.574218-26.230469c0-.540982-.43827-.982422-.97852-.982422h-26.128902-51.914062z" fill="url(#a)"/><g fill="#7e7e7e"><path d="m48 24v8h-24v-8z" stroke-width="1.054979"/><path d="m104 24v8h-32v-8z" stroke-width="1.218184"/><path d="m48 40v8h-24v-8z" stroke-width="1.054979"/><path d="m104 40v8h-32v-8z" stroke-width="1.218184"/><path d="m48 56v8h-24v-8z" stroke-width="1.054979"/><path d="m104 56v8h-32v-8z" stroke-width="1.218184"/><path d="m48 72v8h-24v-8z" stroke-width="1.054979"/><path d="m104 72v8h-32v-8z" stroke-width="1.218184"/><path d="m48 88v8h-24v-8z" stroke-width="1.054979"/><g stroke-width="1.218184"><path d="m104 88v8h-32v-8z"/><path d="m104 104v8h-32v-8z"/></g></g><g fill="#f60"><path d="m24 80h24v16h-24z" stroke-width="2.817094"/><path d="m72 16v8h-8-8v80h-16v-8h-8v16h8 16 8v-80h8v8l24-12.190265z"/></g></g></svg>

<?xml version="1.0" encoding="UTF-8" standalone="no"?>
<svg
   xmlns:dc="http://purl.org/dc/elements/1.1/"
   xmlns:cc="http://creativecommons.org/ns#"
   xmlns:rdf="http://www.w3.org/1999/02/22-rdf-syntax-ns#"
   xmlns:svg="http://www.w3.org/2000/svg"
   xmlns="http://www.w3.org/2000/svg"
   xmlns:xlink="http://www.w3.org/1999/xlink"
   xmlns:sodipodi="http://sodipodi.sourceforge.net/DTD/sodipodi-0.dtd"
   xmlns:inkscape="http://www.inkscape.org/namespaces/inkscape"
   enable-background="new 0 0 128 128"
   height="128"
   viewBox="0 0 128 128"
   width="128"
   version="1.1"
   id="svg2921"
   sodipodi:docname="sc_insertcolumnbreak.svg"
   inkscape:version="0.92.3 (unknown)"
   inkscape:export-filename="/home/rizmut/Dokumen/Rizmut/Github/libreoffice-style-karasa-jaga/build/images_karasa_jaga/cmd/sc_insertcolumnbreak.png"
   inkscape:export-xdpi="12"
   inkscape:export-ydpi="12">
  <metadata
     id="metadata2927">
    <rdf:RDF>
      <cc:Work
         rdf:about="">
        <dc:format>image/svg+xml</dc:format>
        <dc:type
           rdf:resource="http://purl.org/dc/dcmitype/StillImage" />
        <dc:title></dc:title>
      </cc:Work>
    </rdf:RDF>
  </metadata>
  <defs
     id="defs2925">
    <radialGradient
       inkscape:collect="always"
       xlink:href="#c"
       id="radialGradient1958"
       gradientUnits="userSpaceOnUse"
       gradientTransform="matrix(0.9787234,0,0,0.9818182,1.361705,1.163636)"
       cx="102"
       cy="112.3047"
       r="139.55859" />
    <radialGradient
       inkscape:collect="always"
       xlink:href="#d"
       id="radialGradient1965"
       gradientUnits="userSpaceOnUse"
       cx="102.000002"
       cy="112.3047"
       r="139.5585" />
  </defs>
  <sodipodi:namedview
     pagecolor="#ffffff"
     bordercolor="#666666"
     borderopacity="1"
     objecttolerance="10"
     gridtolerance="10"
     guidetolerance="10"
     inkscape:pageopacity="0"
     inkscape:pageshadow="2"
     inkscape:window-width="1366"
     inkscape:window-height="706"
     id="namedview2923"
     showgrid="true"
     inkscape:zoom="2.6074563"
     inkscape:cx="116.92199"
     inkscape:cy="46.95435"
     inkscape:window-x="0"
     inkscape:window-y="0"
     inkscape:window-maximized="1"
     inkscape:current-layer="svg2921">
    <inkscape:grid
       type="xygrid"
       id="grid1942"
       spacingx="8"
       spacingy="8"
       empspacing="1" />
  </sodipodi:namedview>
  <linearGradient
     id="a"
     gradientUnits="userSpaceOnUse"
     x1="85.219681"
     x2="61.336319"
     y1="93.219681"
     y2="69.336319">
    <stop
       offset="0"
       id="stop2826" />
    <stop
       offset="1"
       stop-color="#393b38"
       id="stop2828" />
  </linearGradient>
  <linearGradient
     id="b"
     gradientUnits="userSpaceOnUse"
     x1="96"
     x2="88.0002"
     y1="104"
     y2="96.0002">
    <stop
       offset="0"
       stop-color="#888a85"
       id="stop2831" />
    <stop
       offset=".0072"
       stop-color="#8c8e89"
       id="stop2833" />
    <stop
       offset=".0673"
       stop-color="#abaca9"
       id="stop2835" />
    <stop
       offset=".1347"
       stop-color="#c5c6c4"
       id="stop2837" />
    <stop
       offset=".2115"
       stop-color="#dbdbda"
       id="stop2839" />
    <stop
       offset=".3012"
       stop-color="#ebebeb"
       id="stop2841" />
    <stop
       offset=".4122"
       stop-color="#f7f7f6"
       id="stop2843" />
    <stop
       offset=".5679"
       stop-color="#fdfdfd"
       id="stop2845" />
    <stop
       offset="1"
       stop-color="#fff"
       id="stop2847" />
  </linearGradient>
  <radialGradient
     id="c"
     cx="102"
     cy="112.3047"
     gradientTransform="matrix(0.9787234,0,0,0.9818182,1.361705,1.163636)"
     gradientUnits="userSpaceOnUse"
     r="139.55859">
    <stop
       offset="0"
       stop-color="#ececec"
       id="stop2854" />
    <stop
       offset=".2363"
       stop-color="#fafafa"
       id="stop2856" />
    <stop
       offset=".2722"
       stop-color="#fff"
       id="stop2858" />
    <stop
       offset=".5313"
       stop-color="#fafafa"
       id="stop2860" />
    <stop
       offset=".8449"
       stop-color="#ebecec"
       id="stop2862" />
    <stop
       offset="1"
       stop-color="#e1e2e3"
       id="stop2864" />
  </radialGradient>
  <radialGradient
     id="d"
     cx="102.000002"
     cy="112.3047"
     gradientUnits="userSpaceOnUse"
     r="139.5585">
    <stop
       offset="0"
       stop-color="#ecf2f5"
       id="stop2879" />
    <stop
       offset=".2435"
       stop-color="#fafcfd"
       id="stop2881" />
    <stop
       offset=".2722"
       stop-color="#fff"
       id="stop2883" />
  </radialGradient>
  <filter
     id="e">
    <feGaussianBlur
       stdDeviation="1.0394514"
       id="feGaussianBlur2886" />
  </filter>
  <filter
     id="f">
    <feGaussianBlur
       stdDeviation=".50063244"
       id="feGaussianBlur2889" />
  </filter>
  <filter
     id="g">
    <feGaussianBlur
       stdDeviation=".4901192"
       id="feGaussianBlur2892" />
  </filter>
  <filter
     id="h">
    <feGaussianBlur
       stdDeviation=".90565481"
       id="feGaussianBlur2895" />
  </filter>
  <filter
     id="i"
     height="1.247155"
     width="1.247155"
     x="-.123577"
     y="-.123577">
    <feGaussianBlur
       stdDeviation="1.7720846"
       id="feGaussianBlur2898" />
  </filter>
  <path
     style="opacity:0.71506898;stroke-width:1.03868628;filter:url(#e)"
     d="M 14 6 L 14.021484 64 L 14 122 L 14.042969 122 L 77.720703 122 L 114 122 L 114 85.927734 L 114 42.072266 L 114 6 L 77.720703 6 L 14.042969 6 L 14 6 z "
     id="path2901" />
  <path
     style="opacity:0.83561599;stroke-width:1.03868628;filter:url(#e)"
     d="M 14 7 L 14.021484 64.5 L 14 122 L 14.042969 122 L 77.720703 122 L 114 122 L 114 85.927734 L 114 43.072266 L 114 7 L 77.720703 7 L 14.042969 7 L 14 7 z "
     id="path2905" />
  <path
     style="opacity:0.89589;filter:url(#f)"
     inkscape:connector-curvature="0"
     d="M 24.919999,10.931136 V 119.06907 l 58.676001,-1e-4 c 0.53,0 1.039,-0.211 1.414,-0.586 l 31.484,-31.765936 c 0.375,-0.375 0.586,-0.884 0.586,-1.414 V 10.931136 Z"
     transform="matrix(1.0416667,0,0,1.0357143,-9.958333,-3.321534)"
     id="path2903" />
  <path
     style="fill:url(#radialGradient1965)"
     d="M 16 8 L 16 120 L 77.171875 120 L 112 120 L 112 85.171875 L 112 42.828125 L 112 8 L 77.171875 8 L 16 8 z "
     id="path2907" />
  <path
     style="fill:url(#radialGradient1958)"
     d="M 24.679688 16 C 24.140411 16 23.699219 16.44144 23.699219 16.982422 L 23.849609 64 L 23.699219 111.01758 C 23.699219 111.55856 24.140411 112 24.679688 112 L 24.978516 112 L 76.892578 112 L 103.02148 112 C 103.56173 112 104 111.55856 104 111.01758 L 104 84.787109 L 104 43.212891 L 104 16.982422 C 104 16.44144 103.56173 16 103.02148 16 L 76.892578 16 L 24.978516 16 L 24.679688 16 z "
     id="path2909" />
  <path
     sodipodi:nodetypes="ccccc"
     style="fill:#7e7e7e;fill-opacity:1;stroke-width:1.05497873"
     id="path67"
     d="m 48,24 v 8 H 24 v -8 z"
     inkscape:connector-curvature="0" />
  <path
     inkscape:connector-curvature="0"
     d="m 104,24 v 8 H 72 v -8 z"
     id="path1991"
     style="fill:#7e7e7e;fill-opacity:1;stroke-width:1.21818447"
     sodipodi:nodetypes="ccccc" />
  <path
     inkscape:connector-curvature="0"
     d="m 48,40 v 8 H 24 v -8 z"
     id="path1993"
     style="fill:#7e7e7e;fill-opacity:1;stroke-width:1.05497873"
     sodipodi:nodetypes="ccccc" />
  <path
     sodipodi:nodetypes="ccccc"
     style="fill:#7e7e7e;fill-opacity:1;stroke-width:1.21818447"
     id="path1995"
     d="m 104,40 v 8 H 72 v -8 z"
     inkscape:connector-curvature="0" />
  <path
     sodipodi:nodetypes="ccccc"
     style="fill:#7e7e7e;fill-opacity:1;stroke-width:1.05497873"
     id="path1997"
     d="m 48,56 v 8 H 24 v -8 z"
     inkscape:connector-curvature="0" />
  <path
     inkscape:connector-curvature="0"
     d="m 104,56 v 8 H 72 v -8 z"
     id="path1999"
     style="fill:#7e7e7e;fill-opacity:1;stroke-width:1.21818447"
     sodipodi:nodetypes="ccccc" />
  <path
     inkscape:connector-curvature="0"
     d="m 48,72 v 8 H 24 v -8 z"
     id="path2001"
     style="fill:#7e7e7e;fill-opacity:1;stroke-width:1.05497873"
     sodipodi:nodetypes="ccccc" />
  <path
     sodipodi:nodetypes="ccccc"
     style="fill:#7e7e7e;fill-opacity:1;stroke-width:1.21818447"
     id="path2003"
     d="m 104,72 v 8 H 72 v -8 z"
     inkscape:connector-curvature="0" />
  <path
     sodipodi:nodetypes="ccccc"
     style="fill:#7e7e7e;fill-opacity:1;stroke-width:1.05497873"
     id="path2005"
     d="m 48,88 v 8 H 24 v -8 z"
     inkscape:connector-curvature="0" />
  <path
     inkscape:connector-curvature="0"
     d="m 104,88 v 8 H 72 v -8 z"
     id="path2007"
     style="fill:#7e7e7e;fill-opacity:1;stroke-width:1.21818447"
     sodipodi:nodetypes="ccccc" />
  <path
     sodipodi:nodetypes="ccccc"
     style="fill:#7e7e7e;fill-opacity:1;stroke-width:1.21818447"
     id="path2011"
     d="m 104,104 v 8 H 72 v -8 z"
     inkscape:connector-curvature="0" />
  <path
     style="fill:#ff6600;stroke-width:2.81709361"
     inkscape:connector-curvature="0"
     id="path148"
     d="M 24,80 H 48 V 96 H 24 Z"
     sodipodi:nodetypes="ccccc" />
  <path
     style="opacity:1;fill:#ff6600;fill-opacity:1;stroke:none;stroke-width:4.5;stroke-linecap:round;stroke-linejoin:round;stroke-miterlimit:4;stroke-dasharray:none;stroke-dashoffset:0;stroke-opacity:1"
     d="m 72,16 v 8 h -8 -8 v 80 H 40 v -8 h -8 v 16 h 8 16 8 V 32 h 8 v 8 L 96,27.809735 Z"
     id="rect875"
     inkscape:connector-curvature="0"
     sodipodi:nodetypes="ccccccccccccccccc" />
</svg>
